img/slide4/logo_portugal_1980.svg

<svg height="180" viewBox="0 0 180 180" width="180" xmlns="http://www.w3.org/2000/svg"><path d="m100.074753 75.3546027c1.073491-1.073662 2.812716-1.073662 3.885205 0 1.071987 1.07266 1.071987 2.8116618 0 3.8838208-1.073491 1.07266-2.811714 1.07266-3.885205 0-1.0724889-1.072159-1.0724889-2.8111608 0-3.8838208zm7.183376 7.8684974c3.083095-3.0830478 3.084068-8.0834527 0-11.1679601-3.084068-3.0835343-8.0845502-3.0835343-11.1686186 0-3.0835818 3.0845074-3.0835818 8.0849123 0 11.1679601 3.0840684 3.0845074 8.0845506 3.0845074 11.1686186 0zm-31.2177292-7.8684974c1.0729653-1.073662 2.8121508-1.073662 3.885617 0 1.0714626 1.07266 1.0714626 2.8116618 0 3.8838208-1.0734662 1.07266-2.8126517 1.07266-3.885617 0-1.0724644-1.072159-1.0724644-2.8111608 0-3.8838208zm7.8700363 7.868186c3.0836531-3.0829766 3.0836531-8.083266 0-11.1677021-3.083653-3.0834631-8.0837639-3.0834631-11.1688766 0-3.0831666 3.0844361-3.0831666 8.0847255 0 11.1677021 3.0851127 3.0854091 8.0852236 3.0844361 11.1688766 0zm-6.4963019 13.4189736c1.0736742-1.0731366 2.8126958-1.0731366 3.8843659 0 1.0726722 1.0721345 1.0726722 2.8125996 0 3.8842327-1.0716701 1.072636-2.8106917 1.072636-3.8843659 0-1.0721712-1.0716331-1.0736742-2.8120982 0-3.8842327zm10.9882016-10.301034c1.0718534-1.0723301 2.8111725-1.0723301 3.883527 0 1.0723546 1.0738334 1.0723546 2.8126116 0 3.8854428-1.0723545 1.0718291-2.8116736 1.0718291-3.883527 0-1.074359-1.0728312-1.074359-2.8116094 0-3.8854428zm10.2991916 10.301034c1.0722079-1.0731366 2.8107876-1.0731366 3.8844986 0 1.072709 1.0721345 1.072709 2.8125996 0 3.8842327-1.073711 1.072636-2.8122907 1.072636-3.8844986 0-1.0727089-1.0716331-1.0727089-2.8120982 0-3.8842327zm-13.8120844 7.2220567c2.6127451-2.645863 2.9452419-6.7275329.9970183-9.7397613 2.6571409 1.9270035 6.2565137 1.9270035 8.9131824 0-1.9477514 3.0122284-1.6161992 7.0938983.9974905 9.7397613 2.9934162 3.03136 7.8467368 3.03136 10.8415698 0 2.993888-3.031359 2.993888-7.9476337 0-10.9799499-2.691147-2.7233453-6.8841962-3.0002713-9.8776124-.8269519 1.9477514-3.0112718 1.6157269-7.0938982-.9979628-9.7397616-2.9934162-3.0323162-7.8467365-3.0323162-10.8410973 0-2.6127451 2.6472982-2.9452419 6.7284898-.9960736 9.7397616-2.9957777-2.1723628-7.1869382-1.8963934-9.8776122.8269519-2.9943608 3.0323162-2.9943608 7.9485909 0 10.9799499 2.9943608 3.03136 7.8476811 3.03136 10.8410973 0zm-25.9176426-3.220042c-.8378751-2.3988672-1.3808218-4.9298733-1.5898262-7.5536482h5.9124998v.7471287c0 2.3594968.3325491 4.6416108.954453 6.8051615zm8.710603 7.398906-2.9778675 2.901523c-1.4816942-1.688988-2.7881913-3.529896-3.8890853-5.493562h5.2674953c.4826366.896466 1.0169152 1.76142 1.5994575 2.592039zm1.3733906-40.3588606h21.288266l21.286841-.001419-.000949 25.4935866c0 11.709294-9.530522 21.201692-21.285892 21.201692-11.7567949 0-21.288266-9.492398-21.288266-21.201692zm17.8540772-10.3018482-.026761 5.4935623h-14.3938398c4.2169133-3.0815539 9.1332437-5.0367503 14.4206008-5.4935623zm6.2071158 0c5.2765069.4717293 10.182461 2.4250073 14.393743 5.4935623h-14.4206012zm20.80018 48.0686698h5.267382c-1.101454 1.963666-2.407077 3.804574-3.889358 5.493562l-2.977594-2.901523c.5821-.830619 1.116416-1.695573 1.59957-2.592039zm2.788294-11.6132522v-.747263h5.912565c-.208526 2.6242466-.752365 5.1543498-1.590648 7.5536482h-5.276305c.622791-2.16394.954388-4.4464642.954388-6.8063852zm-.267693-13.7944733h4.518564c.875266 2.4002246 1.443727 4.9316832 1.661694 7.553648h-6.180258zm0-8.2403434c1.003897 1.0951565 1.920889 2.2423282 2.746781 3.4334764h-2.746781zm-23.3476392 50.8154509.0237221-2.832606c6.1777272-.604036 11.7301381-3.342618 15.9128311-7.467823l2.604219 2.604668c-5.069427 4.338422-11.488172 7.143486-18.5407722 7.695761zm-6.2024802 0c-7.042685-.543602-13.455571-3.348969-18.5185499-7.694937l2.5948476-2.605492c4.1877853 4.144669 9.7552653 6.888791 15.9459249 7.473698zm-27.8438502-42.5751075h4.5184334v7.553648h-6.1802576c.2184695-2.6224361.7860045-5.1543498 1.6618242-7.553648zm4.5184334-8.2403434v3.4334764h-2.7467812c.8240943-1.1914764 1.7416858-2.3389641 2.7467812-3.4334764zm.3006753-8.3881415c-6.9657657 6.8513577-11.2877998 16.3869342-11.2877998 26.9298671 0 20.8580903 16.9097797 37.7672873 37.7694316 37.7672873 20.8582221 0 37.7670491-16.909197 37.7670491-37.7672873 0-10.5429329-4.319175-20.0785094-11.286847-26.9298671l-.545615-.527504c-6.765627-6.3934251-15.891933-10.3118223-25.9345871-10.3118223-10.0436067 0-19.1694363 3.9183972-25.9360167 10.3118223zm-39.522348 6.8858878c.8444488-2.6445305 2.3398368-4.648811 4.1982947-6.0513944l2.7230241 3.4816745c-1.228594.8821221-2.214343 2.1589502-2.7565529 3.8552683-2.1951837 6.880277 5.2017662 11.2335174 10.8729368 9.8245086l2.8964163 3.7001397c-9.1418887 4.1535926-21.4201646-3.882347-17.934119-14.8101967zm42.8536622-40.2498555-.8852084-4.2475144 19.0298859-4.1291318.8842772 4.2484654-7.3405712 1.592699 4.1629476 19.9966933-4.3482779.9432582-4.1634133-19.9966933zm-17.3658951 79.1495551-23.8694171 6.551052-2.4578081-9.393046c-1.3116211-5.018881.1336744-10.1042727 5.4593203-11.5675061 5.5043525-1.509354 9.4169366 2.4104028 10.7655314 7.5637611l.3659456 1.401092-4.0960309 1.008826c-.3588352-1.33798-.8044166-2.729363-1.310673-3.552735-.9944998-1.6176157-2.5123207-2.5036148-4.3813925-1.9899781-2.9925058.8204591-3.2769195 3.4765141-2.5739437 6.1650971l1.2395696 4.73973 7.8128434-2.144846 4.097927-1.213211 7.7782398-2.046779zm15.1072961 17.348403-16.3964507 17.357155-3.5177124-3.019432 12.8989193-13.653404-3.6147726-1.588958 1.8542347-3.712455 6.426636 2.599864zm-10.0111364-62.9861922-16.0832842-19.146326 8.3483332-6.9964276c3.7287685-3.1264102 8.7654138-4.0459708 12.1759724.0143831 2.3844153 2.8387479 2.4386502 6.1353583.4953133 9.2143043l11.9417545 2.76875-4.3474302 3.6418052-10.8724153-2.5601948-1.1504516.966066-2.6392712-3.3109935c1.2953979-1.0883225 2.6507901-2.3247912 3.2032181-3.1681213.9560698-1.4594069 1.1389326-3.0851786-.0350367-4.4851353-1.846386-2.1958225-4.2274416-1.1727035-6.090626.389303l-4.700677 3.9400152 4.7352337 5.6357847 2.7746185 3.3052403 5.7551376 6.8511581zm-21.4732288 2.6965961-2.8503987-3.794407c7.3198552-2.9111582 17.2743322.8938903 18.4525815 9.9119108.4349634 3.3197013-.7627691 7.0636766-3.0681241 9.5926643-.5124093.5616888-1.0520952 1.0636924-1.6146739 1.5073988l-2.6463118-3.5237414c1.1314895-.8749206 2.0433054-2.1190567 2.5747109-3.7712732.354595-1.0979304.456395-2.1500559.3253702-3.1660927-.6872715-5.2962537-6.4694116-7.8650316-11.1731541-6.7564596zm60.9629315-29.6978191 4.1441075-13.5137985 4.3142969 1.3159698-4.0949419 13.3586734c-1.1563412 3.7696808-.2713573 6.8792548 3.7498359 8.1061102 3.950281 1.2046947 6.371695-.7808119 7.512436-4.5019276l4.143162-13.515213 4.314769 1.3159698c-.083676.2753588-3.425058 13.9593705-6.169359 17.6059885-3.63354 4.8253799-10.326704 4.7725714-14.9175579 1.3183273-3.7465266-2.819127-4.300587-7.2366553-2.9967485-11.4900999zm35.7574854 34.554871 26.268306 7.7344195.51281 3.65654-23.128239 14.7034611-.684855-4.9009946 5.598608-3.4981202 3.943264-2.6874113 7.687392-4.5894038-8.684496-2.5227883.503305 3.5816245-3.960849 2.567165-1.039402-7.4299862-6.346673-1.8480724zm-48.2872195 74.9168142c-1.968787 5.785747-7.1701592 11.2192-14.1120036 9.064788-1.5312245-.475643-2.8312009-1.162943-3.857884-2.088064-1.24962-1.127901-2.1741237-2.400644-3.0991163-3.770104l3.9185072-2.620243c1.9795428 3.206621 4.9647461 6.429594 8.9805438 3.443508.7074335-.527039 1.3728219-1.241906 1.987854-2.167962l2.1790127-6.648726c.5969428-2.019848-.3534724-4.205564-3.105472-5.059666-2.3075925-.717203-4.5594507.238289-5.3221296 2.482409-.9152147 2.690328 1.5155798 4.841001 4.1585554 5.020886l-1.5204687 4.275182c-5.9562287-1.10594-10.726394-7.93642-5.5959118-13.56798 5.7860926-6.352968 19.9992979-1.926402 15.3885129 11.635972zm37.8395555-86.7715061c-4.01487-13.1742478 15.423346-23.6684008 23.801459-9.6267147 1.290887 2.1626672 1.764291 4.3234373 1.753501 6.8185672l-.005436.9817371-4.575129-.0294047c.129804-3.7467261-.915312-7.5062575-4.697299-9.2472994-7.271435-3.3497629-16.376835 5.8818857-10.312772 13.0642174 1.281819 1.5205068 3.060426 2.634565 4.99079 3.136816l3.231272-2.69622-4.48064-5.306123 3.290925-2.7431726 7.343973 8.7004671-8.083668 6.7417357c-5.519075-.7773271-10.590515-4.3329228-12.256976-9.7946061zm12.846725 40.0091984 23.008664 8.9812907-1.702635 4.07074-18.97746-7.40745-4.818025 11.522801-4.029777-1.575221zm-38.7418863 58.1287487c-.8775855-.166941-1.7249921-.435848-2.50246-.810516l3.8475801-3.429874c1.3896701.174529 2.9220915-.060231 3.8806333-.465726 4.2049379-1.777066 2.2260589-6.067728-2.7041322-5.554575-1.7824758.185912-4.548403 1.306122-4.3165518 3.508128.0335322.302105.1111352.574333.2246657.818578l-3.5548919 3.093147c-.7238165-.902524-1.2105124-2.002341-1.3484734-3.300874-.2625092-2.47281.8220179-4.377452 2.7060483-5.836287-7.1447531-4.317694-1.1434479-14.090368 8.0477273-12.282001 1.2014107.235709 2.2777939.702384 3.1841219 1.326989l-3.5850712 3.117808c-2.3941988-.848457-6.2666886.315385-6.0017842 2.81428.2831075 2.664886 3.8174011 2.985963 5.8034653 2.117112.9743498-.427786 1.7834338-1.13349 1.9769625-2.123278l4.0003916-3.567884c1.278055 2.25038 1.103209 5.085527-1.345121 7.348713 8.553106 4.188221 2.249532 15.228126-8.3131103 13.22626zm33.6395893-10.80998c-1.405758.816944-2.887003 1.297336-4.438236 1.407658-1.081814.078669-2.140133-.005121-3.158957-.226231l.978831-4.45991c1.39676.421273 2.85051.35238 4.204278-.433842.743372-.434307 1.27878-.974747 1.635718-1.624113 1.68721-3.060166-.190967-7.509836-3.163956-10.126385l1.113809-5.07483c7.311243 4.206681 11.28506 15.617368 2.828513 20.537653zm-9.942297-5.605608-1.113199 4.982118c-7.408596-4.102975-11.057577-15.662916-2.862301-20.505612 2.586204-1.531321 5.240943-1.775424 7.693994-1.145016l-1.005501 4.508733c-1.44755-.503955-2.953844-.479406-4.326495.330721-4.102289 2.425748-2.070236 8.605224 1.613502 11.829056zm-27.5259047 22.836195c-40.70428 0-73.8199788-33.115177-73.8199788-73.8190332 0-40.7048011 33.1156988-73.8204513 73.8199788-73.8204513 40.7042797 0 73.8195057 33.1156502 73.8195057 73.8204513 0 40.7038562-33.115226 73.8190332-73.8195057 73.8190332zm.0000002-153.819742c-44.1123197 0-80.0002365 35.8878682-80.0002365 80.0007096 0 44.1114224 35.8879168 79.9992904 80.0002365 79.9992904 44.1118465 0 79.9997635-35.887868 79.9997635-79.9992904 0-44.1128414-35.887917-80.0007096-79.9997635-80.0007096z" fill="none" stroke="#fff"/></svg>

<?xml version="1.0" encoding="UTF-8"?>
<svg width="180px" height="180px" viewBox="0 0 180 180" version="1.1" xmlns="http://www.w3.org/2000/svg" xmlns:xlink="http://www.w3.org/1999/xlink">
    <title>Logo Portugal 1980</title>
    <g id="Logo-Portugal-1980" stroke="none" stroke-width="1" fill="none" fill-rule="evenodd">
        <path d="M100.074753,75.3546027 C101.148244,74.2809407 102.887469,74.2809407 103.959958,75.3546027 C105.031945,76.4272627 105.031945,78.1662645 103.959958,79.2384235 C102.886467,80.3110835 101.148244,80.3110835 100.074753,79.2384235 C99.0022641,78.1662645 99.0022641,76.4272627 100.074753,75.3546027 L100.074753,75.3546027 Z M107.258129,83.2231001 C110.341224,80.1400523 110.342197,75.1396474 107.258129,72.05514 C104.174061,68.9716057 99.1735788,68.9716057 96.0895104,72.05514 C93.0059286,75.1396474 93.0059286,80.1400523 96.0895104,83.2231001 C99.1735788,86.3076075 104.174061,86.3076075 107.258129,83.2231001 L107.258129,83.2231001 Z M76.0403998,75.3546027 C77.1133651,74.2809407 78.8525506,74.2809407 79.9260168,75.3546027 C80.9974794,76.4272627 80.9974794,78.1662645 79.9260168,79.2384235 C78.8525506,80.3110835 77.1133651,80.3110835 76.0403998,79.2384235 C74.9679354,78.1662645 74.9679354,76.4272627 76.0403998,75.3546027 L76.0403998,75.3546027 Z M83.9104361,83.2227887 C86.9940892,80.1398121 86.9940892,75.1395227 83.9104361,72.0550866 C80.8267831,68.9716235 75.8266722,68.9716235 72.7415595,72.0550866 C69.6583929,75.1395227 69.6583929,80.1398121 72.7415595,83.2227887 C75.8266722,86.3081978 80.8267831,86.3072248 83.9104361,83.2227887 L83.9104361,83.2227887 Z M77.4141342,96.6417623 C78.4878084,95.5686257 80.22683,95.5686257 81.2985001,96.6417623 C82.3711723,97.7138968 82.3711723,99.4543619 81.2985001,100.525995 C80.22683,101.598631 78.4878084,101.598631 77.4141342,100.525995 C76.341963,99.4543619 76.34046,97.7138968 77.4141342,96.6417623 L77.4141342,96.6417623 Z M88.4023358,86.3407283 C89.4741892,85.2683982 91.2135083,85.2683982 92.2858628,86.3407283 C93.3582174,87.4145617 93.3582174,89.1533399 92.2858628,90.2261711 C91.2135083,91.2980002 89.4741892,91.2980002 88.4023358,90.2261711 C87.3279768,89.1533399 87.3279768,87.4145617 88.4023358,86.3407283 L88.4023358,86.3407283 Z M98.7015274,96.6417623 C99.7737353,95.5686257 101.512315,95.5686257 102.586026,96.6417623 C103.658735,97.7138968 103.658735,99.4543619 102.586026,100.525995 C101.512315,101.598631 99.7737353,101.598631 98.7015274,100.525995 C97.6288185,99.4543619 97.6288185,97.7138968 98.7015274,96.6417623 L98.7015274,96.6417623 Z M84.889443,103.863819 C87.5021881,101.217956 87.8346849,97.1362861 85.8864613,94.1240577 C88.5436022,96.0510612 92.142975,96.0510612 94.7996437,94.1240577 C92.8518923,97.1362861 93.1834445,101.217956 95.7971342,103.863819 C98.7905504,106.895179 103.643871,106.895179 106.638704,103.863819 C109.632592,100.83246 109.632592,95.9161853 106.638704,92.8838691 C103.947557,90.1605238 99.7545078,89.8835978 96.7610916,92.0569172 C98.708843,89.0456454 98.3768185,84.963019 95.7631288,82.3171556 C92.7697126,79.2848394 87.9163923,79.2848394 84.9220315,82.3171556 C82.3092864,84.9644538 81.9767896,89.0456454 83.9259579,92.0569172 C80.9301802,89.8845544 76.7390197,90.1605238 74.0483457,92.8838691 C71.0539849,95.9161853 71.0539849,100.83246 74.0483457,103.863819 C77.0427065,106.895179 81.8960268,106.895179 84.889443,103.863819 L84.889443,103.863819 Z M58.9718004,100.643777 C58.1339253,98.2449098 57.5909786,95.7139037 57.3819742,93.0901288 L63.294474,93.0901288 L63.294474,93.8372575 C63.294474,96.1967543 63.6270231,98.4788683 64.248927,100.642419 L58.9718004,100.643777 Z M67.6824034,108.042683 L64.7045359,110.944206 C63.2228417,109.255218 61.9163446,107.41431 60.8154506,105.450644 L66.0829459,105.450644 C66.5655825,106.34711 67.0998611,107.212064 67.6824034,108.042683 L67.6824034,108.042683 Z M69.055794,67.6838224 L90.34406,67.6838224 L111.630901,67.6824034 L111.629952,93.17599 C111.629952,104.885284 102.09943,114.377682 90.34406,114.377682 C78.5872651,114.377682 69.055794,104.885284 69.055794,93.17599 L69.055794,67.6838224 Z M86.9098712,57.3819742 L86.8831102,62.8755365 L72.4892704,62.8755365 C76.7061837,59.7939826 81.6225141,57.8387862 86.9098712,57.3819742 L86.9098712,57.3819742 Z M93.116987,57.3819742 C98.3934939,57.8537035 103.299448,59.8069815 107.51073,62.8755365 L93.0901288,62.8755365 L93.116987,57.3819742 Z M113.917167,105.450644 L119.184549,105.450644 C118.083095,107.41431 116.777472,109.255218 115.295191,110.944206 L112.317597,108.042683 C112.899697,107.212064 113.434013,106.34711 113.917167,105.450644 L113.917167,105.450644 Z M116.705461,93.8373918 L116.705461,93.0901288 L122.618026,93.0901288 C122.4095,95.7143754 121.865661,98.2444786 121.027378,100.643777 L115.751073,100.643777 C116.373864,98.479837 116.705461,96.1973128 116.705461,93.8373918 L116.705461,93.8373918 Z M116.437768,80.0429185 L120.956332,80.0429185 C121.831598,82.4431431 122.400059,84.9746017 122.618026,87.5965665 L116.437768,87.5965665 L116.437768,80.0429185 Z M116.437768,71.8025751 C117.441665,72.8977316 118.358657,74.0449033 119.184549,75.2360515 L116.437768,75.2360515 L116.437768,71.8025751 Z M93.0901288,122.618026 L93.1138509,119.78542 C99.2915781,119.181384 104.843989,116.442802 109.026682,112.317597 L111.630901,114.922265 C106.561474,119.260687 100.142729,122.065751 93.0901288,122.618026 L93.0901288,122.618026 Z M86.8876486,122.618026 C79.8449636,122.074424 73.4320776,119.269057 68.3690987,114.923089 L70.9639463,112.317597 C75.1517316,116.462266 80.7192116,119.206388 86.9098712,119.791295 L86.8876486,122.618026 Z M59.0437984,80.0429185 L63.5622318,80.0429185 L63.5622318,87.5965665 L57.3819742,87.5965665 C57.6004437,84.9741304 58.1679787,82.4422167 59.0437984,80.0429185 L59.0437984,80.0429185 Z M63.5622318,71.8025751 L63.5622318,75.2360515 L60.8154506,75.2360515 C61.6395449,74.0445751 62.5571364,72.8970874 63.5622318,71.8025751 L63.5622318,71.8025751 Z M63.8629071,63.4144336 C56.8971414,70.2657913 52.5751073,79.8013678 52.5751073,90.3443007 C52.5751073,111.202391 69.484887,128.111588 90.3445389,128.111588 C111.202761,128.111588 128.111588,111.202391 128.111588,90.3443007 C128.111588,79.8013678 123.792413,70.2657913 116.824741,63.4144336 L116.279126,62.8869296 C109.513499,56.4935045 100.387193,52.5751073 90.3445389,52.5751073 C80.3009322,52.5751073 71.1751026,56.4935045 64.4085222,62.8869296 L63.8629071,63.4144336 Z M24.3405591,70.3003214 C25.1850079,67.6557909 26.6803959,65.6515104 28.5388538,64.248927 L31.2618779,67.7306015 C30.0332839,68.6127236 29.0475349,69.8895517 28.505325,71.5858698 C26.3101413,78.4661468 33.7070912,82.8193872 39.3782618,81.4103784 L42.2746781,85.1105181 C33.1327894,89.2641107 20.8545135,81.2281711 24.3405591,70.3003214 L24.3405591,70.3003214 Z M67.1942213,30.0504659 L66.3090129,25.8029515 L85.3388988,21.6738197 L86.223176,25.9222851 L78.8826048,27.5149841 L83.0455524,47.5116774 L78.6972745,48.4549356 L74.5338612,28.4582423 L67.1942213,30.0504659 Z M49.8283262,109.200021 L25.9589091,115.751073 L23.501101,106.358027 C22.1894799,101.339146 23.6347754,96.2537543 28.9604213,94.7905209 C34.4647738,93.2811669 38.3773579,97.2009237 39.7259527,102.354282 L40.0918983,103.755374 L35.9958674,104.7642 C35.6370322,103.42622 35.1914508,102.034837 34.6851944,101.211465 C33.6906946,99.5938493 32.1728737,98.7078502 30.3038019,99.2214869 C27.3112961,100.041946 27.0268824,102.698001 27.7298582,105.386584 L28.9694278,110.126314 L36.7822712,107.981468 L40.8801982,106.768257 L48.658438,104.721478 L49.8283262,109.200021 Z M64.9356223,126.548424 L48.5391716,143.905579 L45.0214592,140.886147 L57.9203785,127.232743 L54.3056059,125.643785 L56.1598406,121.93133 L62.5864766,124.531194 L64.9356223,126.548424 Z M54.9244859,63.5622318 L38.8412017,44.4159058 L47.1895349,37.4194782 C50.9183034,34.293068 55.9549487,33.3735074 59.3655073,37.4338613 C61.7499226,40.2726092 61.8041575,43.5692196 59.8608206,46.6481656 L71.8025751,49.4169156 L67.4551449,53.0587208 L56.5827296,50.498526 L55.432278,51.464592 L52.7930068,48.1535985 C54.0884047,47.065276 55.4437969,45.8288073 55.9962249,44.9854772 C56.9522947,43.5260703 57.1351575,41.9002986 55.9611882,40.5003419 C54.1148022,38.3045194 51.7337466,39.3276384 49.8705622,40.8896449 L45.1698852,44.8296601 L49.9051189,50.4654448 L52.6797374,53.7706851 L58.434875,60.6218432 L54.9244859,63.5622318 Z M33.4512571,66.2588279 L30.6008584,62.4644209 C37.9207136,59.5532627 47.8751906,63.3583112 49.0534399,72.3763317 C49.4884033,75.696033 48.2906708,79.4400083 45.9853158,81.968996 C45.4729065,82.5306848 44.9332206,83.0326884 44.3706419,83.4763948 L41.7243301,79.9526534 C42.8558196,79.0777328 43.7676355,77.8335967 44.299041,76.1813802 C44.653636,75.0834498 44.755436,74.0313243 44.6244112,73.0152875 C43.9371397,67.7190338 38.1549996,65.1502559 33.4512571,66.2588279 L33.4512571,66.2588279 Z M94.4141886,36.5610088 L98.5582961,23.0472103 L102.872593,24.3631801 L98.7776511,37.7218535 C97.6213099,41.4915343 98.5062938,44.6011083 102.527487,45.8279637 C106.477768,47.0326584 108.899182,45.0471518 110.039923,41.3260361 L114.183085,27.8108231 L118.497854,29.1267929 C118.414178,29.4021517 115.072796,43.0861634 112.328495,46.7327814 C108.694955,51.5581613 102.001791,51.5053528 97.4109371,48.0511087 C93.6644105,45.2319817 93.1103501,40.8144534 94.4141886,36.5610088 L94.4141886,36.5610088 Z M130.171674,71.1158798 L156.43998,78.8502993 L156.95279,82.5068393 L133.824551,97.2103004 L133.139696,92.3093058 L138.738304,88.8111856 L142.681568,86.1237743 L150.36896,81.5343705 L141.684464,79.0115822 L142.187769,82.5932067 L138.22692,85.1603717 L137.187518,77.7303855 L130.840845,75.8823131 L130.171674,71.1158798 Z M81.8844545,146.032694 C79.9156675,151.818441 74.7142953,157.251894 67.7724509,155.097482 C66.2412264,154.621839 64.94125,153.934539 63.9145669,153.009418 C62.6649469,151.881517 61.7404432,150.608774 60.8154506,149.239314 L64.7339578,146.619071 C66.7135006,149.825692 69.6987039,153.048665 73.7145016,150.062579 C74.4219351,149.53554 75.0873235,148.820673 75.7023556,147.894617 L77.8813683,141.245891 C78.4783111,139.226043 77.5278959,137.040327 74.7758963,136.186225 C72.4683038,135.469022 70.2164456,136.424514 69.4537667,138.668634 C68.538552,141.358962 70.9693465,143.509635 73.6123221,143.68952 L72.0918534,147.964702 C66.1356247,146.858762 61.3654594,140.028282 66.4959416,134.396722 C72.2820342,128.043754 86.4952395,132.47032 81.8844545,146.032694 L81.8844545,146.032694 Z M119.72401,59.2611879 C115.70914,46.0869401 135.147356,35.5927871 143.525469,49.6344732 C144.816356,51.7971404 145.28976,53.9579105 145.27897,56.4530404 L145.273534,57.4347775 L140.698405,57.4053728 C140.828209,53.6586467 139.783093,49.8991153 136.001106,48.1580734 C128.729671,44.8083105 119.624271,54.0399591 125.688334,61.2222908 C126.970153,62.7427976 128.74876,63.8568558 130.679124,64.3591068 L133.910396,61.6628868 L129.429756,56.3567638 L132.720681,53.6135912 L140.064654,62.3140583 L131.980986,69.055794 C126.461911,68.2784669 121.390471,64.7228712 119.72401,59.2611879 L119.72401,59.2611879 Z M132.570735,99.2703863 L155.579399,108.251677 L153.876764,112.322417 L134.899304,104.914967 L130.081279,116.437768 L126.051502,114.862547 L132.570735,99.2703863 Z M93.8288487,157.399135 C92.9512632,157.232194 92.1038566,156.963287 91.3263887,156.588619 L95.1739688,153.158745 C96.5636389,153.333274 98.0960603,153.098514 99.0546021,152.693019 C103.25954,150.915953 101.280661,146.625291 96.3504699,147.138444 C94.5679941,147.324356 91.8020669,148.444566 92.0339181,150.646572 C92.0674503,150.948677 92.1450533,151.220905 92.2585838,151.46515 L88.7036919,154.558297 C87.9798754,153.655773 87.4931795,152.555956 87.3552185,151.257423 C87.0927093,148.784613 88.1772364,146.879971 90.0612668,145.421136 C82.9165137,141.103442 88.9178189,131.330768 98.1089941,133.139135 C99.3104048,133.374844 100.386788,133.841519 101.293116,134.466124 L97.7080448,137.583932 C95.313846,136.735475 91.4413562,137.899317 91.7062606,140.398212 C91.9893681,143.063098 95.5236617,143.384175 97.5097259,142.515324 C98.4840757,142.087538 99.2931597,141.381834 99.4866884,140.392046 L103.48708,136.824162 C104.765135,139.074542 104.590289,141.909689 102.141959,144.172875 C110.695065,148.361096 104.391491,159.401001 93.8288487,157.399135 L93.8288487,157.399135 Z M127.468438,146.589155 C126.06268,147.406099 124.581435,147.886491 123.030202,147.996813 C121.948388,148.075482 120.890069,147.991692 119.871245,147.770582 L120.850076,143.310672 C122.246836,143.731945 123.700586,143.663052 125.054354,142.87683 C125.797726,142.442523 126.333134,141.902083 126.690072,141.252717 C128.377282,138.192551 126.499105,133.742881 123.526116,131.126332 L124.639925,126.051502 C131.951168,130.258183 135.924985,141.66887 127.468438,146.589155 L127.468438,146.589155 Z M117.526141,140.983547 L116.412942,145.965665 C109.004346,141.86269 105.355365,130.302749 113.550641,125.460053 C116.136845,123.928732 118.791584,123.684629 121.244635,124.315037 L120.239134,128.82377 C118.791584,128.319815 117.28529,128.344364 115.912639,129.154491 C111.81035,131.580239 113.842403,137.759715 117.526141,140.983547 L117.526141,140.983547 Z M90.0002363,163.819742 C49.2959563,163.819742 16.1802575,130.704565 16.1802575,90.0007088 C16.1802575,49.2959077 49.2959563,16.1802575 90.0002363,16.1802575 C130.704516,16.1802575 163.819742,49.2959077 163.819742,90.0007088 C163.819742,130.704565 130.704516,163.819742 90.0002363,163.819742 L90.0002363,163.819742 Z M90.0002365,10 C45.8879168,10 10,45.8878682 10,90.0007096 C10,134.112132 45.8879168,170 90.0002365,170 C134.112083,170 170,134.112132 170,90.0007096 C170,45.8878682 134.112083,10 90.0002365,10 L90.0002365,10 Z" stroke="#FFFFFF"></path>
    </g>
</svg>
